X:6
T:Mazurka
C:trad.
Z:<anamnese@laposte.net> -- http://anamnese.fr.st
M:3/4
L:1/8
Q:1/4=125
K:F
FD A2 AB | cd A4 | BA G2 AG | FE F2 D2 |
FD A2 AB | cd A4 | BA G2 AG | FE D4 |
dc B2 BA | Bc d4 | cB A2 AG | AB A4 |
dc B2 BA | Bc d4 | cB A2 GF | EF D4 |]
